mimetypes/scalable/text-x-scala.svg

<?xml version="1.0" standalone="no"?><!-- Generator: Gravit.io --><svg xmlns="http://www.w3.org/2000/svg" xmlns:xlink="http://www.w3.org/1999/xlink" style="isolation:isolate" viewBox="0 0 256 256" width="256" height="256"><switch><g><g id="application-mimetype"><g opacity="0.2"><path d=" M 78.924321 15.500025 C 43.627596 15.500025 39.829708 19.125398 40.002695 54.49353 L 40.002695 127.500014 L 40.002695 200.506441 C 39.829708 235.874573 43.627596 239.500004 78.924321 239.500004 L 177.081083 239.500004 C 212.377805 239.500004 216.002702 235.875035 216.002702 200.506441 L 216.002702 127.500014 L 216.002702 54.49353 C 216.002702 19.124994 212.377805 15.500025 177.081083 15.500025 L 78.924321 15.500025 Z " id="path1163" fill="none" vector-effect="non-scaling-stroke" stroke-width="4" stroke="rgb(0,0,0)" stroke-linejoin="miter" stroke-linecap="butt" stroke-miterlimit="4"/></g><defs><filter id="KrgxMxUwi0hZT7Tr1d7bpXwfU5xNdSQE" x="-200%" y="-200%" width="400%" height="400%" filterUnits="objectBoundingBox" color-interpolation-filters="sRGB"><feGaussianBlur xmlns="http://www.w3.org/2000/svg" stdDeviation="2.120027"/></filter></defs><g opacity="0.1" filter="url(#KrgxMxUwi0hZT7Tr1d7bpXwfU5xNdSQE)"><path d=" M 78.924315 16.5 C 43.627592 16.5 39.82971 20.125416 40.002699 55.493531 L 40.002699 128.5 L 40.002699 201.50647 C 39.82971 236.874573 43.627592 240.500001 78.924315 240.500001 L 177.081083 240.500001 C 212.377806 240.500001 215.084425 236.863068 216.002699 201.50647 L 216.002699 128.5 L 216.002699 55.493531 C 216.002699 20.124997 212.377806 16.5 177.081083 16.5 L 78.924315 16.5 Z " id="shadow" fill="rgb(0,0,0)"/></g><defs><filter id="IvwQrAOJqUgMG8rEA08kkLjJoPojjgQx" x="-200%" y="-200%" width="400%" height="400%" filterUnits="objectBoundingBox" color-interpolation-filters="sRGB"><feGaussianBlur xmlns="http://www.w3.org/2000/svg" stdDeviation="8.4801079"/></filter></defs><g opacity="0.3" filter="url(#IvwQrAOJqUgMG8rEA08kkLjJoPojjgQx)"><linearGradient id="_lgradient_356" x1="-0.0681490711308741" y1="0.03125" x2="0.9537210324437329" y2="1.0531201035746074" gradientTransform="matrix(176.005396,0,0,224,39.997303,16.5)" gradientUnits="userSpaceOnUse"><stop offset="0%" stop-opacity="0.58823532" style="stop-color:rgb(0,0,0)"/><stop offset="88%" stop-opacity="0" style="stop-color:rgb(0,0,0)"/><stop offset="100%" stop-opacity="1" style="stop-color:rgb(0,0,0)"/></linearGradient><path d=" M 78.924315 16.5 C 43.627592 16.5 39.82971 20.125416 40.002699 55.493531 L 40.002699 128.5 L 40.002699 201.50647 C 39.82971 236.874573 43.627592 240.500001 78.924315 240.500001 L 177.081083 240.500001 C 212.377806 240.500001 216.002699 236.875001 216.002699 201.50647 L 216.002699 128.5 L 216.002699 55.493531 C 216.002699 20.124997 212.377806 16.5 177.081083 16.5 L 78.924315 16.5 Z " id="blur" fill="url(#_lgradient_356)"/></g><path d=" M 78.924321 15.500025 C 43.627596 15.500025 39.829708 19.125398 40.002695 54.49353 L 40.002695 127.500014 L 40.002695 200.506441 C 39.829708 235.874573 43.627596 239.500004 78.924321 239.500004 L 177.081083 239.500004 C 212.377805 239.500004 216.002702 235.875035 216.002702 200.506441 L 216.002702 127.500014 L 216.002702 54.49353 C 216.002702 19.124994 212.377805 15.500025 177.081083 15.500025 L 78.924321 15.500025 Z " id="shape" fill="rgb(188,25,56)"/><g opacity="0.6"><path d=" M 78.924573 15.500025 C 43.627848 15.500025 39.829708 19.126032 40.002695 54.494165 L 40.002695 56.494138 C 39.829708 21.126005 43.627848 17.499998 78.924573 17.499998 L 177.080824 17.499998 C 212.377545 17.499998 216.002702 21.125601 216.002702 56.494138 L 216.002702 54.494165 C 216.002702 19.125571 212.377545 15.500025 177.080824 15.500025 L 78.924573 15.500025 Z " id="highlight" fill="rgb(255,255,255)"/></g><g opacity="0.1"><path d=" M 128.002691 15.500025 L 128.002691 239.500004 L 177.080824 239.500004 C 212.377531 239.500004 215.084421 235.863501 216.002702 200.506787 L 216.002702 127.500014 L 216.002702 54.493184 C 216.002702 19.124648 212.377531 15.500025 177.080824 15.500025 L 128.002691 15.500025 Z " id="right highlight" fill="rgb(255,255,255)"/></g><g opacity="0.2"><path d=" M 156.002703 239.500004 L 216.002702 179.500005 L 216.002702 201.983857 C 215.950394 235.97965 212.200019 239.500004 177.828601 239.500004 L 156.002703 239.500004 Z " id="clip" fill="rgb(255,255,255)"/></g></g><path d=" M 168.333333 73 L 87.666667 87.666667 L 87.666667 109.666667 L 168.333333 95 L 168.333333 73 Z  M 168.333333 109.666667 L 87.666667 124.333333 L 87.666667 146.333333 L 168.333333 131.666667 L 168.333333 109.666667 Z  M 168.333333 146.333333 L 87.666667 161 L 87.666667 183 L 168.333333 168.333333 L 168.333333 146.333333 Z " id="Compound Path" fill="rgb(255,255,255)"/></g><foreignObject requiredExtensions="http://ns.gravit.io/"><gravitDesigner:gravitElementRef xmlns:gravitDesigner="http://ns.gravit.io/" xlink:href="#5m5nVffLnTga7MohIPYoSsC2pDYtDiv6"/></foreignObject></switch><gravitDesigner:gravitGraphicSource xmlns:gravitDesigner="http://ns.gravit.io/" id="5m5nVffLnTga7MohIPYoSsC2pDYtDiv6" version="1"><![CDATA[eMKcw41ZacKPw6JYwrLDvSsjesO0PlVXe19KGmkMNnjDhws2w4bCncKtJ8OvC8Oed2jDlX9/woYkF3LCqmrCsnp6XsKXEcKZcH0jHHEjw47CuRHCl8OfF8O/XHxaVE4ULD4sw77CvsO4w7TDq8Ovw5fCgcKoKcO7w6puwqRywrp4HsOwwrLCsg3DvMOFwqfCrsOpwoMPwovCqmvDpwnCvy5gZ8Kbwqlaw4U5wobDtMKPecOST8Ozw5sEZCEsRk52aMOGwqhHTVfDjmIawpw8w6QAw6M8MsKSw7MUdn7Ch34LPkvDvsO2w6HDlwXDg0nCuWpsbQ94VsOlw6XCm8OVAUDDosKcNTM1w594IX8eW8KEw5LDiwQOwrvDiVfDpikXw5Myw4LDi1TDp0g6w4fDl8KqNBTCjF5UAcK9woBgw4gSwq4DUcKxcljCm1Rxw4DDuTwUwo5Ew5nCjjvDpkXDji7DvcO0w4XCm8OYw55sesKNV203RgDCv8KWw5zCpcKOecKkYQBQw6xzU8Ovw53CvMK5wprCsA/DhcOjwpM3w5fChcORw4nDjcOxw7jCrMKKHsO5w4wSwrPCiRdZIC7CrcK1w4gTw7XCscKYwp9nw4UbwoM2w7zCmzfDl8KFecKSwrzCqsOCJUxNw65Uw5VVf8KmVhPCkMOgA8OfScKTHMOWw4tsw5vDrxTDisK3WsOZwqzClMKbVXjChEbDj8KSF1XCq8OATMOVw6rDjkHCjQTChQzDtRkxEAl3HynDkAR2wpjCrSfCu3Qnw7YGPcOcwqzCukrDpsODwovCg8OXwoHDuG7CjUPCgkbCjsOrw4kSdyHChiTCmEzDtlrCojduAnnCpcOveQLDvCJ3wrwLwrPCvMODd0rCv8KCw4LDiSg6woxRYsOAw6gYbzrCnyDCvGp7dHfDs8OmKllzL2HCvi5MfMKXfMO1woFBwrsQw5PDq8OOI1JLwpEOJcKzw58lOsOUwoPCnnnDsAbDvMOmw411YcKeJH/Du8Otw4PCognDpsKEw6oWwp/Cij7Di8Kuw5/CnMOCwovDi8OmwpLDpMOzw53CrgnDpw/DsEccJ1EIRzAMQBESRsOQD8OAw7zDusOSw7BHDCNBDCQAwpzDgMOBw7nDtcOhZwLDgz7CgiQCYxgEYTBIw6LCs8Oaw4LDicKDG8OAQBDCg2fCu8O+wrfDrcOKasOxCcO4CMONwp8zw6cUXCx4woJhUnTDosOjw5BreMKGScKWKcOPw7cuOsKqw5nCj8OFw6rCp18vw4YBwr9dRsKGWUvDqGRtw7DDucODwqPCkFs2fsOQw5zCi8K5w6PDohPDvMKRwrxeOMOweMOhw5jDpUbDpl1Ew7rCrsK7TsOLwrPDhSfDpF8fw7N5dsOof8OmEcKPw6HCqMOew5bCiwg7wpN1w4w4BhDCgHzDnSZYwqEFw4rCkBwWwp9nw5kgDMK5wplLFsKawrDCkwLCm2zDtnoTTcKbFcOqw7jCqkBMw4vDiB7CqBPDqMOJw4DDosOJw6BvwpNQw6fCkcOqSFEZw4M9w6XDgQglBSTDiCtMIgvCnnBoP05Uw4XCjsO0A3ZqdmPDq8OfUgplf8Opw5XDqCZ5SSnCisKiI8K1wqHCicO1S3bCmsO5FMKcOwdhUEtUwqJCw7fDsFYxwpsJw7M4Z2MgY3dLKcKYw4FDNcKHwqjDssO4WsOVRcO3S3Y6KAJ0Bm/CmivDjMKvw6XCpMKsQhEGGMK6w5nCn2XDg2nCpcOwRcKuwo7ClsOwC8OcZcK5w6AYU8OKKhHCpcOMwo3Dq2duOcOmw71BXC1Xw54xE8Kowps3VxMGYcKgGMO1BsKQw6vDgsKsKMOqwqg+wqnCqnDCrT0hA8K9w4/Dt8OLw5hyw4twwqvCpTVEwp8bw50FwonDgnjCosOUw4fChcK5SV7CqVHDmy3Dn8KoclEGF8OjOcKHK8OPM8OVw53ChhXCpgnDhcO3wpXCtQnDkMO9worDl29WLSHDusO4LHlzwrBUwrE7B8KbwpocecKPLUtVTgTDi8K3wqYMRV3CgxlcwrrDi118eCIhfMK5K1Q4w6/Cnx3CvMKqGsOvw5YYM8KOw5TCgCJRwpHCnnYuwo/CoCtOw5sbaMKIwo7ClGNRw5lQwr/DiMOhd2E+EWJ7wo58TMKmT8K4w50IA1DDmVxKIQXCmsOYwqLCvk3CiMKbN1fDiV/DiF/CnsODw7zCuDB3w4nDh8OIQcOrw6/DjMKAPEYnwoh1GGBVNsK5wptzSsKGwpFKwrZZw5/CvHlcwpjCp8OkeycJAR/DkRs2AcOow4I6KHYlwqEvDMO/DMKiM8KacRgAAQgDIcKIAMOhDz9Dw4BHw6TCinAMRkB0w6Yqw6TChcKHw5rDmMOxw4vDsTULwoF/HgvDvTvDpgE/PsOZD8KgJMKAwqIgw7Ruw6bCuSPCuBsLaV3CqMKuGcOnGBfCrMOmwqTDhTYIw5fCqMOjbgYzw5jDscKwU8OATyzDtMOkw5fDvDHDsMK6e8Kfw5zCrG/CmMOrw7glQ8OnR38kYRzCg2HDskLDqhgOPj1Lw4rCuU3CvcOJLDbCliXCsG85Pm/Cj8KKJybCihcrw5HCpsOkF8Kfw78owot1OMKNwpwOw4DCgUDDscO4wqhCB8KZwqrDhcOJTRASw6DDscKCFzbDn8OBYiI5AsKyOwonwoEyw4/Clj9WwrbCp8OtcMK/HcKcU8KLwq3DncKnw6LDoz0sw5bDksOHwr3DiSvCnG7DoMKGS8KawpzCt08HwqgPUBrDnDsIw6TDl19jMcOXdnIbNwt+RW8VPlp1AFvCnxHCpMKkQMODwoTDocOkwqloeQ/Ci8KdNMODBjTDnz7CjHoAwprDgsOEbhAXw5vDqMKuw47Dg8K2PzDDknfCsMOYQB7CtsKwSVLDnHYvIMOMSCLDqMOaw5IpwpBjbMKXw5/ChE3DtB0sdnRyIcOTwrbDrcOEwpzChMKDBicowrVNwrYJw5dbwojCl8OxSzjCuVnDtUhawqvDsVsswqbCgMKYLMOmGBUlwojDjCfCgMK4w5w7a8KtGF0zw7PDvCB2wqPCr8KxGBIkY0vDpMKRw5IYw6TCjsOTTMO5w6jDkgbDosOWU8OqB3AKfA/Ci3laSsKTwq3Dm8Kowq1VAsKZFsKvwo7DvMKAw6VlwqRWw53DjsOvV8OeD8OKYhfDlMK+w6Yww7jDnRzDtsOfwqbCpg/Dn8KkSsOxwqfDnx8Ww63Dg8OlcQjCgsKCCMKEwqJzLhIEQBAfHhbDoTTDn8O5GcO4CGAEOMODHwdBGCBwBMK8w5w6PVzDvARgEELDp8KvwpfCicK/w47CqsKqw4vDqMO8w53Cm8O/P8K8wpjDtMKwwpjDh8OKwqvDhMKsHMKCURjCmg3Cu03Dv3h9w5ZXJcKeJ8KCw5/CmHXCocOFwodFczEXwp3Co8KEX8OIEsKBcQICYcOiw7NzwpXDmMKWKsKhwpfCmcKFw4DChcOAwrvCsUpbaWDCscKCw5/Dsw3Cr8KafsOxR8O4GSQ/w6IowoDDgsOowrxGJAbCoQjDtsO0NFttacKrw7XCqcOUw7ZUDFxhWnfDosOPwqzDj1vCnAgEwofDhngvQ8O/a8KzK8O1wqHDkWDCiMK/wp7DkVXCssKIw67DkQhRwrrDkMOZwoLCsXJAEGnDscO+ZsKXFDlLwrXDhzVDWMObCUYEHyXDlSoKHW3CjWzCkcOBe8KqwoHDnsOTw6zDjmV3wrZZRsKew6zDr3t9J8OwPBTCqxXCssOnXDXCpgsdbcK+w5bDrALDpxnDhsKIw4cyUjTDmVDDpQ9aU2ACW8K7woDDlAsHXFjCvMK/w5nDjQwawpLCkcKJFQhTBMKMwojCiVnCv8K0AinDj03DrcK8NcObYMOxw75mwrcawoHDgcKnwrMAUlnDrSDDhmNpwrZTwr5EN2TCtB7Dt8KVw5Ysw57Dn8Oswp7CqGHDo8OkcwvDrsO1w4kZHyvCvWPCkcKYwpXCjyfCucKTe2FnLsOew5/DrMKCe1nCizRbwoXCt8K5w4zDp1DDkBU8wrU8woQTw5YOw6l5w4jDgsKvNcK7XjocD8O2wrAZw4HCgsKEM8KPw5/CtWtcMXIYa8ONWgzCq8ODw6LDvcONLsOZwpzDrMKEw59sZUwvwpoIEQoqw5hbXcKGMlvDrcK8RgRnw7EDNsK7c8KRWV3CgsO/H8OXwpXDoMOMVTPDocKhw5hLw6tZFRBewoTDrSg2wrbCg0zDpsKWw4FKw4jCqsKpI8KxbsOsVFvCtnfCrWcOwq3Cj8OJwrptPGBYU8KodEDChxUCIMK4HxfClsOQwqnDrcOufcKtw6cVRMKBw4klLwHDnm8icMOKLB0UT8KlXANFVcODwo4dK8OKDgwEwp3Ds8Oiwq/CgW/Cv1rDp8K6wrwaRsOWw60twpApV8KqUMKsw4JqfwYndx9ywqvDrwBfw6HDlsKdeipDO8KiwocQSThLXsKmwqI8wrYdHcKVwqlGw63CvgN8w5NIUzvCtW1RwopTwpghV0lFbBghHgoGTcO3w4Bew7oOw7AlwpXDkcO7O8K3NDcrwqwKRHQbSGQdwqMMwp0hKkjCo8OLb8KCwq/Cv1vDo8KWUjV2wphNL0V5wpXCkUbCp8OkwqstwrjCg8KWGsKdch4Tw751aT4kT8O7w71zw4p3TsK0w7jCk8KPdsOmw6LDoMODw63DvcKXwqY/JcOob3dEdD3DpRJzSE/DlcKSw5DDj0zCiVfCmsKEwp7DlsKxwrxsw7JDKMOHwrfChBnDiS/DrsKIw5hrwqrDjAZiecKyO8ObNmlTw4JYLjd0KV4Ke8Ofw6jCo10BRMKvd0RXfcKzI3pGw6Qzw4/Cqg7CqcKJw67Dj8KGXB/DlsOGw6ALSDdRw4nCuDPCj03DmUsbfMKvwr0Gwpc+wqzCn1VdHcK0WcOlwpXCg8KeeTDDjsKrw7XClmLCkUnCkGTCsMKABsK8N8OFWFRNJgHCj8OEw43CqsKrwoNPwpIXVWd3Bld1wqfCqjNHw69owowhwqjCkMKewoJOwppRHcOTwpUTEi5ZDcOjJk3CnzoiagZXw7VKw5UVEcOtwp3Cg8KeBMOtRsKmwo0tTw7CtQNxOCnCrMKWw6PCrVLDliQ2woTCo8OwGlzDicOuw4XDgcOHHcOqbsOZGQlpc0PCrBzDjyg0wrsdw4/CllRSw4rCpsOmWcK2wpHCuQ7CusObwqHDhsKXZcK/OnjCv0PDgcK1w6TDp2nCi1rDog7Dj8KGfRJyO3Blw6zChMK5wrBlw45+w7gUw4HCq8KDP8OKDhUnUcKcw43Dr8OuNWjCsT8dwrTDv8OmPATCuMKdw4TCksOQY0sEwpLDv8OReUjCvENYWljCjx4hNnzCusKOwo/DlsOUwpnCjMK0UXBYwqLDknlTesONDV3DmynCoirDlA5gJzVCbsO2FcKdwpzDtxZbHMOgE29nw4LDu8K4AW3CucONwpt0OMKywqgGw6xgYsOVRkvClMKHXcKtw6hkw40EwpEMw6d0Py7DrWsaXcOlw643wqHCrsO3U8K9w4bDucKgwrbCsjDCpWU8P8OZwrAiw4pWBUTDu8Kow53CvMKkw5/CvcKcwrtuNGAMw4zCk8KtYS1XwpTCkcKLGMKraGMdTcOCZcKPw7HDk8K5KTR+ccOzAl5vXinDgXhAwpZJwoLCrMKxJsKPbxTDjRzDs8Kiw5bDu3zCoBHDn8Kqb8KZwqzDtFPCokbDoTcrw4fCvQoHfcKlwpTDlcOBw59jA8KtwpVWwrTCk2hgdcOWVHrClWrDvMKLXArDncORIcKBwrZeD2/DisKEwo/DtX5fY2XCo8KYw7RRw4nDosKzwo1gw4nDuBrCl8OVwrdxw6lZDX7DiMOIdVjCn8OowobDrz3CtcKOUsK5wqfDjjDDh0DCgMOpw7M3b8KuC8OzwqPDoMKywrlgw7JvX0TDp8KfcU7DuVfCosOTCBtUb2htI21QFmHDjjNCKBrCpsKVwpzCoh05XMO1d8OobMKWLsKPwrBgWDvCmcKsSirCgcOWSigDw6zCmmfDk8KBw5nDksOhdxTCrsO3XWNdLgU6O8Ohw6zDnm/Cjm05w63DlipwwrbDqcOtwoQUwqZLw4TDlsKrw4LDtQ4aY8KdwqbCuC/Ci8KTUsKEwqFhBiQbwpFgwqHCkcO9wpxfwoPCt8Onw68Kw5fDpgUaw5fCvcO1wr5wTQ96w4nDl8KHwqlkwqnDpjh2w5N5wqdLwqYqw6hxRsKLZgM1wrfCvMKcw6Q3woXDqxfCsF9KGnoGw5UEwo7ChTIpWV0rZX8TeFNXTmocwrfDnHdgPwhofAfDrsK7FRHCnjPCnGdVXMKmOmJ3JMKWwq5Xw6UHw7Q7wrDCn8OEwrQjw5rCoQLCs8KkwozCnlciw5PDjsO5w6Jxw6vChhDDjlxeZT9Uw6HDqsKWXVfDpl/ChsOcwp9fw4XDvsO/Qm41FsKSXsKSSMOnJ1DCqMOTwpjCm1d6wonDuyt5wq5Yw44iBsOdQQ7DnUfDqyAUAF7CnMOSHljCl1zCvzw5w4tSPSfCvlsHw5bDtn3CkFvDrcKNw6PCmyTDhTfDqCrClsO6AsOuw5QhA3PClwzCmsKDwqsXw7LCpHnDiwTChMKmwpc0SsOIfcOySsOOMFk/wqTCsl7DjsKmwpJadwnClDDDhykjw5bCkMK1XcOBwoHDuyJXw4vDisKrTMOmAXl9MhI9Q8Kbwq0sBcOpwpDDtAXDnlRwwp9MZ0jCgMKfflDCgH07VQd3w7vCnMOJdsKBw6BvTMO3Yl9iZcO4w6hsUxvDjA1KDW3DnUgUw48Iw6Bcw5zCtMOtcxnCjMKGL8O4w7rCi8K3EC9LwqrCvzTCicOxWxIjwo/Dh8OJIMO6H8OlcF7Dp0AJC8Omwr5XB8O1ECZ7wo/CihjCnMKeS8K7cyZvw4TDoC7ChwU8SMKdw4FLwrTDmMOTEFQGJcKEFE5rwrvDlsKDwqbCozbCh8Omw5pGw753wpfDn8Kpwqosw7HCnC4pwovCn8OzJA/CusOTw6NRw5DCk8KJMTDCrXcGwrjCoQXDisOheGrDg8KUw6LCtmTCgsKowo0Hw47CqQ/DscOzw7J6ZV7ClX3DocOfw6AWDEFRw7rDvjN9XcKGL8O5wrTDuMO9YcOxw4/DqzHDtWXDpHpCw73CiMOMwocbNB8uw5jCvMKcwpfDv8O6wrDCoChqwrzDvMOQNTLDjD/CrlN/wrrDvsOVDcOLak/CjcOWwpLChcKIcx5KwqVFwoXCkjrCrVDDmVnDjyDDvcOhwoLCj8KLw7RqVFXCikLDrsKlZTDCpMOYLMOBRcOjw4TCq0BsS1NKwqB5wpHCpkAiwpjDhRZ5I8K9YsK4w5fDksOsKTcBwpRLJwExKCrDj8KNw4LCsBRzwplueBIKw7rDjHnCln7CtMKcwrh/NsKCwpEdWENqw5jCrnbDq8KOD8OOSiTDq8Kkw4TDucKxw6TDqjHCv3vCuMOAw7HDocKGw4fChxsgH14hw7LDoQrDicKHS1I8XMKzAsK7wrvDsFtSwrwdw4XCnsKIw7rDsSLDiMOrbzjDgMOrC0Quei/DkMOjw7xrfHbChV8rB8OPwrHCk3Q/w7ExShMVAw0pwpAlwooyw4R2fXXDqDFPwq7Ds8OxbDcJwq11ZsORKh7Dtg4uYVpiUWnDp8O0U8OLwrRMw7TCsMO4PMOnw4UfCcO/wpsQw5gowo3DqcKswrhGDsOHAsOXw5gUIFfDh0IqwrIzw41Jw7E+w6PDngRwcy/CrS/CncORAgFze0oaOA5tBMKeO8KqRhPDl0nDh8OrwogAwr/CkcKWw67CpQfDkFPDkcK5PmAzwpYkw4HCtXAUN8Oxwrk9IUcnw5B2wqXDuDbDvMOcwr10wp/Dp8ONSVvDgUdVXwrDp25Hw6jCoXXDnEHCocKZYcKQw6bDksOiwo8Ufgthw712axnCmxEOw6hUd8KtfFzDm8KZeVhNwo5LcMKEw7c2w7zDqz09wq1FCMKAOsOVKsKxbEkMw43CtMO1w7wuw4IxwozDnm/Doj8ew743IcOww7TDsMK4wo1FwoLDgx1nNTUaw43CkFrCjwfDgsOJJ8O4woTDkMOewoZffcKTPDMfQy7CucOLKsObwofCocK4w4A6UF0WZ8Osw4DDpDHCusOewoJvwqTDt8O3w5I5AxdnwokTaXLCowJ0wrXClSHCpD3DqlPCm8K3SzTDnyTDvcKbw7DDq8O3w5LDq1F3wrTDgcOyw4ZKKU7Ck8OHwpbCrEwBB8OMaRUbwqgAw6zDvCPChcKfw4PDvMKGwqVjYFhlOMK2D8KUbi3Cs3spwqBLwoshw51Kw4HDnsKGwp/DhMOTJAPDmW3Cg8OwwqnDinHCtX9UwrM+wpbCt8O7wowYMsO0EF7DgsO/w5vDl2vCiz/DlcKRw7/DklkuCMKPVsOSw4rDiiHDl0vDiF3Cs0fCihEEwpLCp8KSKmZOwpXCjsOebcOtOsKQHWVoSMK2O0psPUQ/SSHCjsKOPWPDm0Q6IFV+w5XDusOTPMKRYMOLPMKvK8OKw4bCpcOmw4R5OgrDgS7CiWzCgX4aOGbCsi5mw41FCsKEYsKXw5rDrcOxf3nDuQ3DtsKyesKud8O8woLCvcOzw7jCtcKUesOew6MVJwrDvgYuPsO/H8OLw4vDnMOo]]></gravitDesigner:gravitGraphicSource></svg>

<svg xmlns="http://www.w3.org/2000/svg" xmlns:xlink="http://www.w3.org/1999/xlink" style="isolation:isolate" width="256" height="256"><switch><g><path d="M78.924 15.5c-35.296 0-39.094 3.625-38.921 38.994v146.012c-.173 35.369 3.625 38.994 38.921 38.994h98.157c35.297 0 38.922-3.625 38.922-38.994V54.494c0-35.369-3.625-38.994-38.922-38.994H78.924z" fill="none" vector-effect="non-scaling-stroke" stroke-width="4" stroke="#000" opacity=".2"/><defs><filter id="a" x="-200%" y="-200%" width="400%" height="400%" filterUnits="objectBoundingBox" color-interpolation-filters="sRGB"><feGaussianBlur xmlns="http://www.w3.org/2000/svg" stdDeviation="2.12"/></filter></defs><path d="M78.924 16.5c-35.296 0-39.094 3.625-38.921 38.994v146.012c-.173 35.369 3.625 38.994 38.921 38.994h98.157c35.297 0 38.003-3.637 38.922-38.994V55.494c0-35.369-3.625-38.994-38.922-38.994H78.924z" opacity=".1" filter="url(#a)"/><defs><filter id="b" x="-200%" y="-200%" width="400%" height="400%" filterUnits="objectBoundingBox" color-interpolation-filters="sRGB"><feGaussianBlur xmlns="http://www.w3.org/2000/svg" stdDeviation="8.48"/></filter></defs><g opacity=".3" filter="url(#b)"><linearGradient id="c" x1="-.068" y1=".031" x2=".954" y2="1.053" gradientTransform="matrix(176.0054 0 0 224 39.997 16.5)" gradientUnits="userSpaceOnUse"><stop offset="0%" stop-opacity=".588"/><stop offset="88%" stop-opacity="0"/><stop offset="100%"/></linearGradient><path d="M78.924 16.5c-35.296 0-39.094 3.625-38.921 38.994v146.012c-.173 35.369 3.625 38.994 38.921 38.994h98.157c35.297 0 38.922-3.625 38.922-38.994V55.494c0-35.369-3.625-38.994-38.922-38.994H78.924z" fill="url(#c)"/></g><path d="M78.924 15.5c-35.296 0-39.094 3.625-38.921 38.994v146.012c-.173 35.369 3.625 38.994 38.921 38.994h98.157c35.297 0 38.922-3.625 38.922-38.994V54.494c0-35.369-3.625-38.994-38.922-38.994H78.924z" fill="#BC1938"/><path d="M78.925 15.5c-35.297 0-39.095 3.626-38.922 38.994v2C39.83 21.126 43.628 17.5 78.925 17.5h98.156c35.297 0 38.922 3.626 38.922 38.994v-2c0-35.368-3.625-38.994-38.922-38.994H78.925z" fill="#FFF" opacity=".6"/><path d="M128.003 15.5v224h49.078c35.297 0 38.003-3.636 38.922-38.993V54.493c0-35.368-3.625-38.993-38.922-38.993h-49.078z" fill="#FFF" opacity=".1"/><path d="M156.003 239.5l60-60v22.484c-.053 33.996-3.803 37.516-38.174 37.516h-21.826z" fill="#FFF" opacity=".2"/><path d="M168.333 73L87.667 87.667v22L168.333 95V73zm0 36.667l-80.666 14.666v22l80.666-14.666v-22zm0 36.666L87.667 161v22l80.666-14.667v-22z" fill="#FFF"/></g><foreignObject requiredExtensions="http://ns.gravit.io/"> </foreignObject></switch> </svg>
